static/assets/img/icons/theme/food/bucket.svg

<svg height="24" viewBox="0 0 24 24" width="24" xmlns="http://www.w3.org/2000/svg"><g fill="none" fill-rule="evenodd"><path d="m0 0h24v24h-24z" opacity="0"/><g fill="#000"><rect height="3" opacity=".3" rx="1" width="10" x="7" y="1"/><path d="m9.32225611 6h5.35548779c2.7614237 0 5 2.23857625 5 5 0 .1040398-.0032473.2080542-.0097371.3118914l-.5508041 8.8128652c-.0658794 1.0540698-.9399786 1.8752434-1.9961051 1.8752434h-10.24219516c-1.05612656 0-1.93022579-.8211736-1.99610515-1.8752434l-.55080408-8.8128652c-.17225288-2.75604606 1.92232537-5.12990141 4.67837147-5.30215429.10383718-.00648983.20785163-.00973711.31189143-.00973711zm-.32225611 3c-1.1045695 0-2 .8954305-2 2v1c0 1.1045695.8954305 2 2 2h6c1.1045695 0 2-.8954305 2-2v-1c0-1.1045695-.8954305-2-2-2z"/></g></g></svg>

<svg width="24px" height="24px" viewBox="0 0 24 24" version="1.1" xmlns="http://www.w3.org/2000/svg" xmlns:xlink="http://www.w3.org/1999/xlink">
    <title>Icon For Bucket</title>
    <g stroke="none" stroke-width="1" fill="none" fill-rule="evenodd">
        <rect opacity="0" x="0" y="0" width="24" height="24"></rect>
        <rect fill="#000000" opacity="0.3" x="7" y="1" width="10" height="3" rx="1"></rect>
        <path d="M9.32225611,6 L14.6777439,6 C17.4391676,6 19.6777439,8.23857625 19.6777439,11 C19.6777439,11.1040398 19.6744966,11.2080542 19.6680068,11.3118914 L19.1172027,20.1247566 C19.0513233,21.1788264 18.1772241,22 17.1210976,22 L6.87890244,22 C5.82277588,22 4.94867665,21.1788264 4.88279729,20.1247566 L4.33199321,11.3118914 C4.15974033,8.55584534 6.25431858,6.18198999 9.01036468,6.00973711 C9.11420186,6.00324728 9.21821631,6 9.32225611,6 Z M9,9 C7.8954305,9 7,9.8954305 7,11 L7,12 C7,13.1045695 7.8954305,14 9,14 L15,14 C16.1045695,14 17,13.1045695 17,12 L17,11 C17,9.8954305 16.1045695,9 15,9 L9,9 Z" fill="#000000"></path>
    </g>
</svg>
